X:1
T:O Why Not Tonight?
T:O Why Not Tonight?
T:James Calvin Bushey
T:Elizabeth Reed, 1842
T:Public Domain Courtesy of the Cyber Hymnal™
C:James Calvin Bushey
Z:Public Domain
Z:Courtesy of the Cyber Hymnal™
%%score ( 1 2 ) ( 3 4 )
L:1/8
Q:1/4=105
M:4/4
K:Eb
V:1 treble 
V:2 treble 
V:3 bass 
V:4 bass 
V:1
 (E>F) | [EG]2 [EG]2 [EG]>[EG] [E^F]>[DG] | E6 [EG]2 | [DB]2 [DB]2 [DB]>[EG] [DF]>[DA] | %4
w: 1.~O *|do not let the Word de-|part, And|close thine eyes a- gainst the|
w: 2.~To- *|mor- row’s sun may nev- er|rise To|bless thy long de- lud- ed|
w: 3.~Our *|Lord in pi- ty lin- gers|still, And|wilt thou thus His love re-|
w: 4.~Our *|bless- èd Lord re- fus- es|none Who|would to Him their souls u-|
 [EG]6 [EB]2 | [Ge]2 [Ge]2 [Ge]>[Ge] [Bd]>[Ac] | [GB]6 [FA]2 | [EG]4 [DF]3 [DF] | E6 || %9
w: light; Poor|sin- ner, hard- en not your|heart, Be|saved, O to-|night.|
w: sight; This|is the time, O then be|wise, Be|saved, O to-|night.|
w: quite? Re-|nounce at once thy stub- born|will, Be|saved, O to-|night.|
w: nite; Be-|lieve on Him, the work is|done, Be|saved, O to-|night.|
"^Refrain" (E>F) | G6 D>F | E6 G2 | B6 F>A | G6 E2 [GB]2 | [Ge]6 ([Bd][Ac]) | [GB]6 [FA]2 x4 | %16
w: |||||||
w: O *|why not to-|night? O|why not to-|night? Wilt thou|* be *|saved? Then|
w: |||||||
w: |||||||
 [EG]4 [DF]7/2 [CE]/ | E6 |] %18
w: ||
w: why not to-|night?|
w: ||
w: ||
V:2
 E2 | x8 | E6 x2 | x8 | x8 | x8 | x8 | x8 | E6 || E2 | (E2 E>E E2) x2 | (B,2 B,>B, B,2) x2 | %12
 (D2 D>D D2) x2 | E2 E>E x6 | x8 | x12 | x8 | E6 |] %18
V:3
 (G,>A,) | [E,B,]2 [E,B,]2 [E,B,]>[E,B,] [E,=A,]>[E,B,] | [E,G,]6 [E,B,]2 | %3
w: ~ *|~ ~ ~ ~ ~ ~|~ ~|
 [B,,B,]2 [B,,B,]2 [B,,B,]>[B,,B,] [B,,B,]>[B,,B,] | [E,B,]6 [E,G,]2 | %5
w: ~ ~ ~ ~ ~ ~|~ ~|
 [E,B,]2 [E,B,]2 [E,B,]>[E,B,] [E,C]>[E,D] | [E,E]6 [A,,C]2 | [B,,B,]4 [B,,A,]3 [B,,A,] | %8
w: ~ ~ ~ ~ ~ ~|~ ~|~ ~ ~|
 [E,G,]6 || (G,>A,) | [E,B,]2 [E,B,]>[E,B,] E,2 z2 | [E,G,]2 [E,G,]>[E,G,] [E,G,]2 z2 | %12
w: ~|O *|why not to- night?|why not to- night?|
 [B,,F,]2 [B,,F,]>[B,,F,] [B,,F,]2 z2 | [E,B,]2 [E,B,]>[E,B,] [E,B,]2 [E,B,]2 x2 | B,6 (CD) | %15
w: Why not to- night?|why not to- night? Wilt|thou be *|
 E6 E,2 E,2 [A,,C]2 | [B,,B,]2 [B,,B,]>[B,,B,] [B,,A,]2 [B,,A,]>[B,,A,] | [E,G,]6 |] %18
w: saved, wilt thou be|saved? Then why not, O why|not|
V:4
 E,2 | x8 | x8 | x8 | x8 | x8 | x8 | x8 | x6 || E,2 | x8 | x8 | x8 | x10 | E,2 E,2 E,2 E,2 | %15
 E,2 x10 | x8 | x6 |] %18

